!!!OTL: FLUECHTIGER ALS WIND UND WELLE
!!!ARE: Europa, Mitteleuropa, Deutschland, Weimar
!!!SCT: B0651
!!!YEM: Copyright 1995, estate of Helmut Schaffrath.
**kern
*ICvox
*Ivox
*M6/8
*k[]
*C:
=1
{4E
8E
4E
8E
=2
4G
8F
4E
8E}
=3
{4e
8d
8c
8B
8A
=4
8A
8B
8G#
4A
8r}
=5
{4E
8E
4E
8E
=6
4G
8F
4E
8E}
=7
{4e
8d
8c
8B
8A
=8
8A
8B
8G#
4A
8r}
=9
{4B
8B
4c
8c
=10
8d
8c
8d
4e
8c}
=11
{4c#
8c#
4d
8d
=12
8e
8d
8e
4f
8r}
=13
{8f
8d
8B
4G
8G
=14
8G
8A
8B
4c
8c}
=15
{8c
8d
8e
4f
8d
=16
8c
8d
8B
4c
8r}
==
!!!AGN: Moral - Lied, Vergaenglichkeit
!!!ONB: ESAC (Essen Associative Code) Database: BOEHME
!!!AMT: compound duple
!!!AIN: vox
!!!EED: Helmut Schaffrath
!!!EEV: 1.0
*-
